assets/Face with symbols on mouth/Flat/face_with_symbols_on_mouth_flat.svg

<svg width="32" height="32" viewBox="0 0 32 32" fill="none" xmlns="http://www.w3.org/2000/svg">
<path d="M15.9989 29.9978C25.3333 29.9978 29.9978 23.7303 29.9978 15.9989C29.9978 8.26751 25.3333 2 15.9989 2C6.66443 2 2 8.26751 2 15.9989C2 23.7303 6.66443 29.9978 15.9989 29.9978Z" fill="#F8312F"/>
<path d="M10.5 19C12.9853 19 15 16.9853 15 14.5C15 12.0147 12.9853 10 10.5 10C8.01472 10 6 12.0147 6 14.5C6 16.9853 8.01472 19 10.5 19Z" fill="white"/>
<path d="M21.5 19C23.9853 19 26 16.9853 26 14.5C26 12.0147 23.9853 10 21.5 10C19.0147 10 17 12.0147 17 14.5C17 16.9853 19.0147 19 21.5 19Z" fill="white"/>
<path d="M14.9989 11.2899C15.0209 10.8763 14.7035 10.5231 14.2899 10.5011C13.4607 10.4569 12.7846 10.2597 12.2504 9.88776C11.7235 9.52078 11.2715 8.93987 10.9612 8.01214C10.8299 7.61931 10.4049 7.40737 10.0121 7.53875C9.61925 7.67013 9.40731 8.09508 9.53869 8.48791C9.93308 9.66714 10.558 10.537 11.3932 11.1187C12.2213 11.6954 13.1929 11.9447 14.21 11.999C14.6237 12.021 14.9768 11.7036 14.9989 11.2899Z" fill="#402A32"/>
<path d="M17.001 11.2899C16.979 10.8763 17.2964 10.5231 17.71 10.5011C18.5392 10.4569 19.2153 10.2597 19.7495 9.88776C20.2764 9.52078 20.7284 8.93987 21.0387 8.01214C21.1701 7.61931 21.595 7.40737 21.9878 7.53875C22.3807 7.67013 22.5926 8.09508 22.4612 8.48791C22.0668 9.66714 21.442 10.537 20.6067 11.1187C19.7786 11.6954 18.807 11.9447 17.7899 11.999C17.3763 12.021 17.0231 11.7036 17.001 11.2899Z" fill="#402A32"/>
<path d="M14 15C14 16.1046 13.1046 17 12 17C10.8954 17 10 16.1046 10 15C10 13.8954 10.8954 13 12 13C13.1046 13 14 13.8954 14 15Z" fill="#402A32"/>
<path d="M22 15C22 16.1046 21.1046 17 20 17C18.8954 17 18 16.1046 18 15C18 13.8954 18.8954 13 20 13C21.1046 13 22 13.8954 22 15Z" fill="#402A32"/>
<path d="M7 21.5C7 20.6716 7.67157 20 8.5 20H23.5C24.3284 20 25 20.6716 25 21.5V27.5C25 28.3284 24.3284 29 23.5 29H8.5C7.67157 29 7 28.3284 7 27.5V21.5Z" fill="#533566"/>
<path d="M12.1756 22.0318C12.4341 22.1288 12.5651 22.417 12.4682 22.6756L12.3465 23H13.7785L14.0318 22.3245C14.1288 22.0659 14.417 21.9349 14.6756 22.0318C14.9341 22.1288 15.0651 22.417 14.9682 22.6756L14.8465 23H15C15.2761 23 15.5 23.2239 15.5 23.5C15.5 23.7762 15.2761 24 15 24H14.4715L14.0965 25H14.5C14.7761 25 15 25.2239 15 25.5C15 25.7762 14.7761 26 14.5 26H13.7215L13.4682 26.6756C13.3712 26.9341 13.083 27.0651 12.8244 26.9682C12.5659 26.8712 12.4349 26.583 12.5318 26.3245L12.6535 26H11.2215L10.9682 26.6756C10.8712 26.9341 10.583 27.0651 10.3244 26.9682C10.0659 26.8712 9.93488 26.583 10.0318 26.3245L10.1535 26H10C9.72386 26 9.5 25.7762 9.5 25.5C9.5 25.2239 9.72386 25 10 25H10.5285L10.9035 24H10.5C10.2239 24 10 23.7762 10 23.5C10 23.2239 10.2239 23 10.5 23H11.2785L11.5318 22.3245C11.6288 22.0659 11.917 21.9349 12.1756 22.0318ZM13.4035 24H11.9715L11.5965 25H13.0285L13.4035 24Z" fill="white"/>
<path d="M18.9682 22.6756C19.0651 22.417 18.9341 22.1288 18.6756 22.0318C18.417 21.9349 18.1288 22.0659 18.0318 22.3245L16.5318 26.3245C16.4349 26.583 16.5659 26.8712 16.8244 26.9682C17.083 27.0651 17.3712 26.9341 17.4682 26.6756L18.9682 22.6756Z" fill="white"/>
<path d="M19 27C19.2761 27 19.5 26.7762 19.5 26.5C19.5 26.2239 19.2761 26 19 26C18.7239 26 18.5 26.2239 18.5 26.5C18.5 26.7762 18.7239 27 19 27Z" fill="white"/>
<path d="M22 22.5C22 22.2239 21.7761 22 21.5 22C21.2239 22 21 22.2239 21 22.5V24.5C21 24.7762 21.2239 25 21.5 25C21.7761 25 22 24.7762 22 24.5V22.5Z" fill="white"/>
<path d="M16.5 23C16.7761 23 17 22.7762 17 22.5C17 22.2239 16.7761 22 16.5 22C16.2239 22 16 22.2239 16 22.5C16 22.7762 16.2239 23 16.5 23Z" fill="white"/>
<path d="M22 26.5C22 26.7762 21.7761 27 21.5 27C21.2239 27 21 26.7762 21 26.5C21 26.2239 21.2239 26 21.5 26C21.7761 26 22 26.2239 22 26.5Z" fill="white"/>
</svg>

<svg xmlns="http://www.w3.org/2000/svg" width="32" height="32" fill="none"><path fill="#F8312F" d="M15.999 29.998c9.334 0 13.999-6.268 13.999-14 0-7.73-4.665-13.998-14-13.998C6.665 2 2 8.268 2 15.999c0 7.731 4.664 13.999 13.999 13.999Z"/><path fill="#fff" d="M10.5 19a4.5 4.5 0 1 0 0-9 4.5 4.5 0 0 0 0 9ZM21.5 19a4.5 4.5 0 1 0 0-9 4.5 4.5 0 0 0 0 9Z"/><path fill="#402A32" d="M14.999 11.29a.75.75 0 0 0-.71-.789c-.828-.044-1.504-.241-2.039-.613-.527-.367-.979-.948-1.289-1.876a.75.75 0 1 0-1.422.476c.394 1.18 1.019 2.049 1.854 2.63.828.577 1.8.827 2.817.881a.75.75 0 0 0 .789-.71ZM17.001 11.29a.75.75 0 0 1 .709-.789c.83-.044 1.505-.241 2.04-.613.526-.367.978-.948 1.289-1.876a.75.75 0 1 1 1.422.476c-.394 1.18-1.019 2.049-1.854 2.63-.828.577-1.8.827-2.817.881a.75.75 0 0 1-.789-.71ZM14 15a2 2 0 1 1-4 0 2 2 0 0 1 4 0ZM22 15a2 2 0 1 1-4 0 2 2 0 0 1 4 0Z"/><path fill="#533566" d="M7 21.5A1.5 1.5 0 0 1 8.5 20h15a1.5 1.5 0 0 1 1.5 1.5v6a1.5 1.5 0 0 1-1.5 1.5h-15A1.5 1.5 0 0 1 7 27.5v-6Z"/><path fill="#fff" d="M12.176 22.032a.5.5 0 0 1 .292.644l-.121.324h1.431l.254-.675a.5.5 0 0 1 .936.35l-.121.325H15a.5.5 0 0 1 0 1h-.528l-.375 1h.403a.5.5 0 0 1 0 1h-.778l-.254.676a.5.5 0 0 1-.936-.351l.121-.325h-1.431l-.254.676a.5.5 0 0 1-.936-.351l.121-.325H10a.5.5 0 1 1 0-1h.528l.375-1H10.5a.5.5 0 1 1 0-1h.778l.254-.675a.5.5 0 0 1 .644-.293ZM13.403 24h-1.431l-.375 1h1.431l.375-1ZM18.968 22.676a.5.5 0 0 0-.936-.351l-1.5 4a.5.5 0 0 0 .936.35l1.5-4ZM19 27a.5.5 0 1 0 0-1 .5.5 0 0 0 0 1ZM22 22.5a.5.5 0 0 0-1 0v2a.5.5 0 1 0 1 0v-2ZM16.5 23a.5.5 0 1 0 0-1 .5.5 0 0 0 0 1ZM22 26.5a.5.5 0 1 1-1 0 .5.5 0 0 1 1 0Z"/></svg>
